!!!COM: Frescobaldi, Girolamo
!!!CDT: 1583///-1643
!!!ONM: No. 2
!!!OTL: No. 2: Canzon Seconda Canto solo
!!!OPR: Canzoni da sonare a una, due, tre et quattro, libro primo
!!!PPP: Venezia
!!!PDT: 1634
!!!URL: http://icking-music-archive.org/ByComposer/Frescobaldi.html
!!!ONB: Andrea Friggi, ed.
**kern	**kern
!Basso ad Organo	!Canto Solo
*staff2	*staff1
*Icello	*Ivioln
*clefF4	*clefG2
*k[]	*k[]
*met(C)	*met(C)
*M4/4	*M4/4
*MM120	*MM120
=1-	=1-
1G	1r
=2	=2
2A\	2r
2B\	[2gg\
=3	=3
2c\	4gg\]
.	4gg\
2C/	2gg\
=4	=4
2D\	2ff\
2E\	2ee\
=5	=5
2F\	1dd
2G\	.
=6	=6
1C	1ee
=7	=7
2F\	4r
.	4aa\
4F\	4aa\
4F\	4aa\
=8	=8
2G\	2gg\
2A\	2ff\
=9	=9
1B-	1dd
=10	=10
1A	1ee
=11	=11
1D	1ff#
=12	=12
2G\	2r
4.E\	4r
.	4g/
8C/	.
=13	=13
4F\	4a/
4E\	4.cc\
2D\	.
.	8cc\
.	4b\
=14	=14
2C/	8cc\L
.	8dd\
.	8ee\
.	8ff\J
2GG/	8gg\L
.	8dd\J
.	4gg\
=15	=15
4AA/	2cc\
4C/	.
4C/	2r
4BB/	.
=16	=16
4C/	2gg\
2c\	.
.	4.ee\
4A\	.
.	8cc\
=17	=17
4d\	4ff\
4C/	4ee\
4D\	2dd\
[4F\	.
=18	=18
8F\L]	2cc\
8F\J	.
4E\	.
4.F\	4r
.	4cc\
8E\	.
=19	=19
2D\	4dd\
.	4.ff\
2C/	.
.	8ff\L
.	8ee\
.	8ff\J
=20	=20
4G\	2dd\
4G\	.
4.E\	2cc\
8C/	.
=21	=21
4F\	4r
4A\	4a/
4G\	4b\
4F\	[4dd\
=22	=22
2E\	8dd\L]
.	8dd\J
.	4cc#\
2D\	2dd\
=23	=23
4.BB/	4r
.	4gg\
8GG/	.
8C\L	4.ee\
8D\	.
8E\	.
8F\J	8cc\
=24	=24
4D\	4ff\
2C/	4ee\
.	2dd\
4BB/	.
=25	=25
4C/	2ee\
4c\	.
4.B\	4r
.	4dd\
8G\	.
=26	=26
4c\	4ee\
4E\	4.gg\
2D\	.
.	8gg\
.	4ff#\
=27	=27
2E\	4gg\
.	4g/
4F\	4a/
4A\	[4cc\
=28	=28
2G\	8cc\L]
.	8cc\J
.	4b\
2C/	2cc\
=29	=29
2BB/	4r
.	4dd\
4C#/	8.ee\L
.	16ee\Jk
4D\	8ff\L
.	8aa\J
=30	=30
4E\	4gg\
4E\	8r
.	8g/
4F#\	8.a\L
.	16cc\Jk
4G\	8.b\L
.	16dd\Jk
=31	=31
4A\	4cc\
4AA/	8r
.	8ee\
4D\	8.ff#\L
.	16aa\Jk
4BB/	8.gg\L
.	16ff#\Jk
=32	=32
4C/	4ee\
4AA/	8r
.	8cc\
4BB/	8.dd\L
.	16ff\Jk
4C#/	8.ee\L
.	16gg\Jk
=33	=33
2D\	8.ff#\L
.	16a\Jk
.	8dd\L
.	8cc\J
4GG/	8b/L
.	8g/J
4EE/	[4cc\
=34	=34
2GG/	4cc\]
.	4b\
2C/	2cc\
=35	=35
*M2/2	*M2/2
1.c	0.r
2c\	.
1B	.
=36	=36
1A	1.cc
2E\	.
2F#\	2cc\
1G	1b
=37	=37
0A	1a
.	2e/
.	2f/
1G	1g
=38	=38
0F	2a/
.	2b\
.	2cc\
.	2dd\
1E	1ee
=39	=39
0D	1.ff
.	2ff\
1C#	1ee
=40	=40
0D	1dd
.	2a/
.	2b\
1A	1cc
=41	=41
1.G	0b
2G\	.
1F	1r
=42	=42
1E	1.gg
2BB/	.
2C/	2gg\
1D	1ff
=43	=43
0E	1ee
.	2b\
.	2cc#\
1D	1dd
=44	=44
1.AA	1.cc
2AA/	2cc\
2BB/	1b
2C/	.
=45	=45
1D	1a
1C	2e/
.	2f#/
1BB	1g
=46	=46
0AA	2a/
.	2b\
.	2cc\
.	2dd\
1GG	2b\
.	2cc\
=47	=47
0BB-	0dd
1AA	1cc#
=48	=48
*met(C)	*met(C)
*M4/4	*M4/4
2.D\	1dd
4E\	.
=49	=49
2F#\	1r
2G\	.
=50	=50
1F#	2r
.	[2dd\
=51	=51
2G\	4dd\]
.	4cc\
2GG/	[2b\
=52	=52
1AA	4b\]
.	4a/
.	[2a/
=53	=53
1BB-	2a/]
.	2g/
=54	=54
1AA	1a
=55	=55
4D\	8r
.	8dd\
8D\L	8a\L
8D\J	16dd\L
.	16cc\JJ
4E\	8b/L
.	8g/J
4E\	8cc\L
.	16b\L
.	16cc\JJ
=56	=56
2F\	8a\L
.	8aa\
.	8aa\
.	8aa\J
4E\	4gg\
4D\	4ff\
=57	=57
2C#/	2ee\
4.D\	4a/
.	8a/L
8Cn/	8a/J
=58	=58
4BB/	4b\
4G\	4b\
4E\	4.cc\
4A\	.
.	8cc\
=59	=59
4G\	2dd\
4F\	.
4E\	2ee\
4C/	.
=60	=60
4GG/	8r
.	8gg\
8GG/L	8dd\L
8GG/J	16gg\L
.	16ff\JJ
2AA/	8ee\L
.	8cc\J
.	8ff\L
.	16ee\L
.	16ff\JJ
=61	=61
2BB/	4dd\
.	8dd\L
.	8dd\J
2C/	4cc\
.	4b-\
=62	=62
2D\	2a/
4BB/	4dd\
4G\	8dd\L
.	8dd\J
=63	=63
4c\	4ee\
8A\L	4ee\
8c\J	.
4B-\	4.ff\
4A\	.
.	8ff\
=64	=64
2G\	2gg\
2F#\	2aa\
=65	=65
2G\	8r
.	8dd\
.	8b\L
.	16ee\L
.	16dd\JJ
2A\	8cc\L
.	8a\J
.	8cc\L
.	16dd\L
.	16cc\JJ
=66	=66
4.G\	2b\
8G\	.
4F#\	8r
.	8aa\
4A\	8ee\L
.	16aa\L
.	16gg\JJ
=67	=67
4D\	8ff\L
.	8dd\J
8D\L	8a\L
8D\J	16dd\L
.	16cc\JJ
4E\	8b/L
.	8g/J
4E\	4gg\
=68	=68
2F\	4ff\
.	4ee-\
2G\	2dd\
=69	=69
1C	1r
=70	=70
*M3/1	*M3/1
1.c	1.cc
2c\	2g/
1B	2a/
.	2b\
=71	=71
0A	2cc\
.	2dd\
.	2ee\
.	2ff\
1G	1gg
=72	=72
0A	2cc\
.	2dd\
.	2ee\
.	2ff\
1G	1gg
=73	=73
1.C	0.r
2D\	.
1E	.
=74	=74
0.F#	1.dd
.	2a/
.	2dd\
.	2cc\
=75	=75
0G	2b\
.	2cc\
.	2dd\
.	2ee\
1D	1ff#
=76	=76
0G	2b\
.	2cc\
.	2dd\
.	2ee\
1D	1ff#
=77	=77
0.BB	1.gg
.	2dd\
.	2gg\
.	2ff\
=78	=78
0C	2ee\
.	2dd\
.	2ee\
.	2ff\
1GG	1dd
=79	=79
0C	2ee\
.	2dd\
.	2ee\
.	2ff\
1GG	1dd
=80	=80
0.G	2g/
.	2a/
.	2b\
.	2cc\
.	2dd\
.	2ee\
=81	=81
0.D	1ff#
.	1dd
.	1a
=82	=82
0.G	2g/
.	2a/
.	2b\
.	2cc\
.	2dd\
.	2ee\
=83	=83
0.D	1ff#
.	1dd
.	1a
=84	=84
0C#	0.r
1D	.
=85	=85
0.AA	2aa\
.	2ee\
.	2ff\
.	2gg\
.	2aa\
.	2gg\
=86	=86
0.D	2ff\
.	2dd\
.	2ee\
.	2ff\
.	2gg\
.	2ff\
=87	=87
0C	2.ee\
.	4dd\
.	2ee\
.	2ff\
1GG	1dd
=88	=88
0C	2.ee\
.	4dd\
.	2ee\
.	2ff\
1GG	1dd
=89	=89
0AA	2.cc\
.	4b\
.	2cc\
.	4dd\
.	4cc\
1E	1b
=90	=90
0AA	0a
1E	1r
=91	=91
0AA	2.cc\
.	4b\
.	2cc\
.	4dd\
.	4cc\
1E	1b
=92	=92
*met(C)	*met(C)
*M4/4	*M4/4
1AA	1a
=93	=93
4A\	1r
8A\L	.
8A\J	.
4B\	.
4c\	.
=94	=94
2A\	8r
.	16a/LL
.	16b/JJ
.	8cc\L
.	16ee\L
.	16ff\JJ
2G\	8gg\L
.	8dd\
.	8dd\
.	8ee\J
=95	=95
2D\	8ff\L
.	16dd\L
.	16ee\JJ
.	8ff\L
.	16a\L
.	16b\JJ
2C/	8cc/L
.	8e/
.	8e/
.	8f#/J
=96	=96
2E\	8g/L
.	8b/
.	8b/
.	8cc#/J
4D\	8.dd\L
.	16ccn\Jk
4F\	8b/L
.	8a/J
=97	=97
2E\	2b\
4.A\	2r
8B\	.
=98	=98
4c\	8r
.	8ee\L
4A\	8ee\
.	8ff#\J
2G\	8gg\L
.	16g\L
.	16a\JJ
.	8b\L
.	16dd\L
.	16ee\JJ
=99	=99
4D\	2ff\
8D\L	.
8E\J	.
4F\	8r
.	8aa\
4G\	8.gg\L
.	16ff\Jk
=100	=100
2A\	8.ee\L
.	16ff\Jk
.	8.cc#\L
.	16ee\Jk
2D\	8dd\L
.	16dd\L
.	16ee\JJ
.	8ff\L
.	16a\L
.	16b\JJ
=101	=101
4A\	8cc/L
.	16e/L
.	16f/JJ
4G\	8g/L
.	16b/L
.	16cc/JJ
2D\	8dd\L
.	8a\
.	8a\
.	8b\J
=102	=102
1E	16cc/LL
.	16g/
.	16a/
.	16b/JJ
.	16cc\LL
.	16dd\
.	16ee\
.	16ff\JJ
.	[2gg\
=103	=103
1D	2gg\]
.	2ff#\
=104	=104
0GG	0gg
==	==
*-	*-
!!!ENC: Craig Stuart Sapp
!!!END: 2004/12/14/
